_includes/svg/twitter.svg

<?xml version="1.0" encoding="iso-8859-1"?>
<!-- Generator: Adobe Illustrator 19.0.0, SVG Export Plug-In . SVG Version: 6.00 Build 0)  -->
<svg version="1.1" id="Layer_1" xmlns="http://www.w3.org/2000/svg" xmlns:xlink="http://www.w3.org/1999/xlink" x="0px" y="0px"
	 viewBox="0 0 310 310" style="enable-background:new 0 0 310 310;" xml:space="preserve">
<g id="XMLID_826_">
	<path id="XMLID_827_" d="M302.973,57.388c-4.87,2.16-9.877,3.983-14.993,5.463c6.057-6.85,10.675-14.91,13.494-23.73
		c0.632-1.977-0.023-4.141-1.648-5.434c-1.623-1.294-3.878-1.449-5.665-0.39c-10.865,6.444-22.587,11.075-34.878,13.783
		c-12.381-12.098-29.197-18.983-46.581-18.983c-36.695,0-66.549,29.853-66.549,66.547c0,2.89,0.183,5.764,0.545,8.598
		C101.163,99.244,58.83,76.863,29.76,41.204c-1.036-1.271-2.632-1.956-4.266-1.825c-1.635,0.128-3.104,1.05-3.93,2.467
		c-5.896,10.117-9.013,21.688-9.013,33.461c0,16.035,5.725,31.249,15.838,43.137c-3.075-1.065-6.059-2.396-8.907-3.977
		c-1.529-0.851-3.395-0.838-4.914,0.033c-1.52,0.871-2.473,2.473-2.513,4.224c-0.007,0.295-0.007,0.59-0.007,0.889
		c0,23.935,12.882,45.484,32.577,57.229c-1.692-0.169-3.383-0.414-5.063-0.735c-1.732-0.331-3.513,0.276-4.681,1.597
		c-1.17,1.32-1.557,3.16-1.018,4.84c7.29,22.76,26.059,39.501,48.749,44.605c-18.819,11.787-40.34,17.961-62.932,17.961
		c-4.714,0-9.455-0.277-14.095-0.826c-2.305-0.274-4.509,1.087-5.294,3.279c-0.785,2.193,0.047,4.638,2.008,5.895
		c29.023,18.609,62.582,28.445,97.047,28.445c67.754,0,110.139-31.95,133.764-58.753c29.46-33.421,46.356-77.658,46.356-121.367
		c0-1.826-0.028-3.67-0.084-5.508c11.623-8.757,21.63-19.355,29.773-31.536c1.237-1.85,1.103-4.295-0.33-5.998
		C307.394,57.037,305.009,56.486,302.973,57.388z"/>
</g>
</svg>

<?xml version="1.0" encoding="UTF-8" standalone="no"?>
<!DOCTYPE svg PUBLIC "-//W3C//DTD SVG 1.1//EN" "http://www.w3.org/Graphics/SVG/1.1/DTD/svg11.dtd">
<svg width="100%" height="100%" viewBox="0 0 36 33" version="1.1" xmlns="http://www.w3.org/2000/svg" xmlns:xlink="http://www.w3.org/1999/xlink" xml:space="preserve" xmlns:serif="http://www.serif.com/" style="fill-rule:evenodd;clip-rule:evenodd;stroke-linejoin:round;stroke-miterlimit:2;">
    <g transform="matrix(1,0,0,1,-968,-353)">
        <g id="Plan-de-travail1" serif:id="Plan de travail1" transform="matrix(1,0,0,1.69333,0,0)">
            <rect x="0" y="0" width="1920" height="1200" style="fill:none;"/>
            <g>
                <g transform="matrix(0.315021,0,0,0.187606,-1926.29,8.84496)">
                    <g>
                        <g id="ruban">
                        </g>
                    </g>
                </g>
                <g transform="matrix(1,0,0,0.590551,407.595,-229.134)">
                    <g id="twitter" transform="matrix(0.10914,0,0,0.10914,578.332,758.688)">
                        <g transform="matrix(1,0,0,1,-155,-155)">
                            <clipPath id="_clip1">
                                <rect x="0" y="0" width="310" height="310"/>
                            </clipPath>
                            <g clip-path="url(#_clip1)">
                                <g id="XMLID_826_">
                                    <path id="XMLID_827_" d="M302.973,57.388C298.103,59.548 293.096,61.371 287.98,62.851C294.037,56.001 298.655,47.941 301.474,39.121C302.106,37.144 301.451,34.98 299.826,33.687C298.203,32.393 295.948,32.238 294.161,33.297C283.296,39.741 271.574,44.372 259.283,47.08C246.902,34.982 230.086,28.097 212.702,28.097C176.007,28.097 146.153,57.95 146.153,94.644C146.153,97.534 146.336,100.408 146.698,103.242C101.163,99.244 58.83,76.863 29.76,41.204C28.724,39.933 27.128,39.248 25.494,39.379C23.859,39.507 22.39,40.429 21.564,41.846C15.668,51.963 12.551,63.534 12.551,75.307C12.551,91.342 18.276,106.556 28.389,118.444C25.314,117.379 22.33,116.048 19.482,114.467C17.953,113.616 16.087,113.629 14.568,114.5C13.048,115.371 12.095,116.973 12.055,118.724C12.048,119.019 12.048,119.314 12.048,119.613C12.048,143.548 24.93,165.097 44.625,176.842C42.933,176.673 41.242,176.428 39.562,176.107C37.83,175.776 36.049,176.383 34.881,177.704C33.711,179.024 33.324,180.864 33.863,182.544C41.153,205.304 59.922,222.045 82.612,227.149C63.793,238.936 42.272,245.11 19.68,245.11C14.966,245.11 10.225,244.833 5.585,244.284C3.28,244.01 1.076,245.371 0.291,247.563C-0.494,249.756 0.338,252.201 2.299,253.458C31.322,272.067 64.881,281.903 99.346,281.903C167.1,281.903 209.485,249.953 233.11,223.15C262.57,189.729 279.466,145.492 279.466,101.783C279.466,99.957 279.438,98.113 279.382,96.275C291.005,87.518 301.012,76.92 309.155,64.739C310.392,62.889 310.258,60.444 308.825,58.741C307.394,57.037 305.009,56.486 302.973,57.388Z" style="fill:rgb(86,86,86);fill-rule:nonzero;"/>
                                </g>
                            </g>
                        </g>
                    </g>
                </g>
            </g>
        </g>
    </g>
</svg>
